X:4057
T:Mason's Apron reel
O:england
M:C
L:1/8
Q:234
S:Miles Krassen
R:reel
B:O'Neil's Music of Ireland
K:A
af| ec (3ccc BcAF| EFAB c2 BA| FB {d}(3BAB cB {d}(3BAB| cefg abaf|e2 cA
BF {G}(3FEF| EFAB cABc|d{e}d{c}ce fgaf| edcB A2 AB||
|(3cBA ec fcec| (3cBA eA fcec| df {a}(3fef af {a}(3fef| df {a}(3fef afec
| Acec fcec| Ac (3ccc fcec| d{e}d{c}de fgaf| edcB A2||


